X: 25
T: While Shepherds Watch Their Flocks By Night
B: christmas songs
M:4/4
L:1/4
Q: 1/4=130
K:F
V:1 
F|"F"A>AGF|"Bb"BB"F"AF|Acc=B|"C"c3A|"Bb"d>cBA|GFEA|"F"GF"C"FE|"F"F3||
W: 1. While shepherds watch’d their flocks by night,
W: All seated on the ground,
W: The angel of the Lord came down,
W: And glory shone around.
W: “Fear not,” said he, for mighty dread
W: Had seized their troubled mind;
W: “Glad tidings of great joy I bring
W: To you and all mankind.”
W: 
W: 2. “To you, in David’s town this day,
W: Is born of David’s line
W: The Savior who is Christ the Lord,
W: And this shall be the sign:
W: The heav’nly Babe you there shall find
W: To human view displayed,
W: All meanly wrapped in swathing bands,
W: And in a manger laid.”
W: 
W: 3. Thus spake the seraph, and forthwith
W: Appeared a shining throng
W: Of angels praising God, who thus
W: Addressed their joyful song:
W: “All glory be to God on high
W: And on the earth be peace.
W: Goodwill henceforth from heav’n to men
W: Begin and never cease.”
% abcbook-tune_id 6344381b72dc7fd302574031
% abcbook-link-0 https://www.youtube.com/watch?v=wevr3Vt37Ec
% abcbook-link-title-0 King&#39;s College Cambridge 2011   #9 While Shepherd&#39;s watched their flocks by  night

% abcbook-boost 0
% abcbook-tablature 
% abcbook-transpose 2
% abcbook-lastupdated 1670935138207
% abcbook-soundfonts 
% abcbook-repeats 1
%%MIDI transpose  2


